docs/img/directions-slider/2.svg

<svg width="80" height="80" viewBox="0 0 80 80" fill="none" xmlns="http://www.w3.org/2000/svg">
<path d="M70.2913 24.5312L66.7887 21.4675C61.1025 16.49 53.8087 13.75 46.25 13.75C42.1137 13.75 38.75 10.3863 38.75 6.25V1.25H36.25V6.25C36.25 11.7637 40.7363 16.25 46.25 16.25C53.2025 16.25 59.9125 18.7713 65.1425 23.35L68.645 26.4138C73.4788 30.6425 76.25 36.75 76.25 43.1725C76.25 48.8687 74.1 54.2888 70.1975 58.435L64.7575 64.215C59.8025 69.48 52.8137 72.5 45.5837 72.5C39.0687 72.5 32.8125 70.1 27.97 65.7412L26.0175 63.985C24.06 62.2212 21.53 61.25 18.8937 61.25C16.0487 61.25 13.375 62.3575 11.3637 64.3687C9.67875 66.055 8.75 68.295 8.75 70.6775V78.75H11.25V70.6775C11.25 68.9625 11.9188 67.35 13.1313 66.1363C14.67 64.5975 16.7162 63.75 18.8937 63.75C20.91 63.75 22.8462 64.4937 24.345 65.8425L26.2975 67.5987C31.6 72.3712 38.4487 75 45.5837 75C53.5 75 61.1525 71.6925 66.5775 65.9288L72.0175 60.1487C76.3587 55.5362 78.75 49.5062 78.75 43.1725C78.75 36.0287 75.6675 29.235 70.2913 24.5312V24.5312Z" fill="#0098D0"/>
<path d="M10.8187 58.8637C12.985 57.1775 15.69 56.25 18.4362 56.25C22.99 56.25 27.2325 54.21 30.0763 50.655L33.0338 46.9575C35.1075 44.365 36.25 41.11 36.25 37.79V36.9138C36.25 33.0963 38.3088 29.5488 41.6225 27.655C43.2313 26.7363 45.0612 26.25 46.9137 26.25H51.25V23.75H46.9137C44.6262 23.75 42.3675 24.3488 40.3825 25.485C39.8025 25.8163 39.2638 26.1975 38.75 26.605V26.1313C38.75 22.6575 37.2187 19.3875 34.55 17.1637C32.4525 15.4175 31.25 12.8488 31.25 10.1188V1.25H28.75V10.1188C28.75 13.5925 30.2813 16.8625 32.95 19.0863C35.0475 20.8325 36.25 23.4013 36.25 26.1325V29.2388C34.6637 31.445 33.75 34.115 33.75 36.915V37.7912C33.75 40.545 32.8025 43.2463 31.0825 45.3963L28.125 49.0925C25.7563 52.0537 22.2262 53.75 18.4362 53.75C15.1375 53.75 11.8875 54.8663 9.285 56.8913L7.525 58.26C3.53625 61.36 1.25 66.035 1.25 71.0862V78.75H3.75V71.0862C3.75 66.8112 5.685 62.8563 9.05875 60.2313L10.8187 58.8637Z" fill="#0098D0"/>
<path d="M40 41.25C39.4613 41.25 38.985 41.5937 38.8138 42.105L38.05 44.3962C37.0175 47.4937 34.9538 50.1962 32.2375 52.0062C30.0538 53.4612 28.75 55.8975 28.75 58.5225C28.75 60.615 29.565 62.5813 31.05 64.0688L31.1438 64.16C34.9088 67.9262 39.915 70 45.24 70H47.2587C52.585 70 57.5912 67.9262 61.3562 64.16L67.1962 58.3213C71.4225 54.095 73.75 48.4763 73.75 42.5V38.75C73.75 38.0588 73.19 37.5 72.5 37.5H66.59C62.895 37.5 59.2687 38.1575 55.8112 39.4537C52.635 40.6462 49.3038 41.25 45.91 41.25H40ZM56.6888 41.7963C59.865 40.6038 63.1962 40 66.59 40H71.25V42.5C71.25 47.8088 69.1825 52.7988 65.4287 56.5538L59.5888 62.3925C56.2963 65.6863 51.9175 67.5 47.26 67.5H45.2413C40.5838 67.5 36.205 65.6863 32.9063 62.3863L32.8137 62.295C31.805 61.2862 31.25 59.9475 31.25 58.5225C31.25 56.735 32.1375 55.0763 33.625 54.085C36.8012 51.9675 39.215 48.8062 40.4225 45.1862L40.9013 43.75H45.91C49.605 43.75 53.2313 43.0925 56.6888 41.7963Z" fill="#0098D0"/>
<path d="M48.75 65C50.8175 65 52.5 63.3175 52.5 61.25C52.5 59.1825 50.8175 57.5 48.75 57.5C46.6825 57.5 45 59.1825 45 61.25C45 63.3175 46.6825 65 48.75 65ZM48.75 60C49.4387 60 50 60.56 50 61.25C50 61.94 49.4387 62.5 48.75 62.5C48.0613 62.5 47.5 61.94 47.5 61.25C47.5 60.56 48.0613 60 48.75 60Z" fill="#0098D0"/>
<path d="M38.75 56.25C36.6825 56.25 35 57.9325 35 60C35 62.0675 36.6825 63.75 38.75 63.75C40.8175 63.75 42.5 62.0675 42.5 60C42.5 57.9325 40.8175 56.25 38.75 56.25ZM38.75 61.25C38.0613 61.25 37.5 60.69 37.5 60C37.5 59.31 38.0613 58.75 38.75 58.75C39.4387 58.75 40 59.31 40 60C40 60.69 39.4387 61.25 38.75 61.25Z" fill="#0098D0"/>
<path d="M41.25 52.5H43.75V55H41.25V52.5Z" fill="#0098D0"/>
<path d="M46.25 50H48.75V52.5H46.25V50Z" fill="#0098D0"/>
<path d="M55 60H57.5V62.5H55V60Z" fill="#0098D0"/>
<path d="M57.5 55H60V57.5H57.5V55Z" fill="#0098D0"/>
<path d="M52.5 52.5H55V55H52.5V52.5Z" fill="#0098D0"/>
</svg>

<svg width="80" height="80" fill="none" xmlns="http://www.w3.org/2000/svg"><path d="M70.291 24.531l-3.502-3.063A31.17 31.17 0 0046.25 13.75c-4.136 0-7.5-3.364-7.5-7.5v-5h-2.5v5c0 5.514 4.486 10 10 10a28.673 28.673 0 0118.892 7.1l3.503 3.064a22.263 22.263 0 017.605 16.758c0 5.697-2.15 11.117-6.052 15.263l-5.44 5.78A26.43 26.43 0 0145.583 72.5c-6.515 0-12.772-2.4-17.614-6.759l-1.953-1.756a10.624 10.624 0 00-7.123-2.735 10.579 10.579 0 00-7.53 3.119 8.868 8.868 0 00-2.614 6.308v8.073h2.5v-8.073c0-1.715.669-3.327 1.881-4.54a8.095 8.095 0 015.763-2.387c2.016 0 3.952.744 5.451 2.093l1.953 1.756A28.783 28.783 0 0045.584 75a28.943 28.943 0 0020.993-9.071l5.44-5.78a24.682 24.682 0 006.733-16.977 24.766 24.766 0 00-8.459-18.64z" fill="#0098D0"/><path d="M10.819 58.864a12.459 12.459 0 017.617-2.614c4.554 0 8.797-2.04 11.64-5.595l2.958-3.697a14.729 14.729 0 003.216-9.168v-.876c0-3.818 2.059-7.365 5.373-9.259a10.69 10.69 0 015.29-1.405h4.337v-2.5h-4.336a13.17 13.17 0 00-6.532 1.735c-.58.331-1.118.713-1.632 1.12v-.474a11.64 11.64 0 00-4.2-8.967 9.142 9.142 0 01-3.3-7.045V1.25h-2.5v8.869c0 3.473 1.531 6.744 4.2 8.967a9.143 9.143 0 013.3 7.047v3.106c-1.586 2.206-2.5 4.876-2.5 7.676v.876c0 2.754-.947 5.455-2.668 7.605l-2.957 3.697a12.344 12.344 0 01-9.689 4.657 14.974 14.974 0 00-9.151 3.141l-1.76 1.369A16.138 16.138 0 001.25 71.086v7.664h2.5v-7.664c0-4.275 1.935-8.23 5.309-10.855l1.76-1.367zM40 41.25a1.25 1.25 0 00-1.186.855l-.764 2.291a14.818 14.818 0 01-5.813 7.61 7.814 7.814 0 00-3.487 6.517c0 2.092.815 4.058 2.3 5.546l.094.091A19.801 19.801 0 0045.24 70h2.019a19.802 19.802 0 0014.097-5.84l5.84-5.839A22.228 22.228 0 0073.75 42.5v-3.75c0-.691-.56-1.25-1.25-1.25h-5.91c-3.695 0-7.321.657-10.779 1.954a28.072 28.072 0 01-9.901 1.796H40zm16.689.546A28.072 28.072 0 0166.59 40h4.66v2.5a19.747 19.747 0 01-5.821 14.054l-5.84 5.838A17.318 17.318 0 0147.26 67.5h-2.019a17.323 17.323 0 01-12.335-5.114l-.092-.091a5.299 5.299 0 01-1.564-3.773c0-1.787.888-3.446 2.375-4.437a17.342 17.342 0 006.797-8.899l.48-1.436h5.008c3.695 0 7.321-.657 10.779-1.954z" fill="#0098D0"/><path d="M48.75 65a3.755 3.755 0 003.75-3.75 3.755 3.755 0 00-3.75-3.75A3.755 3.755 0 0045 61.25 3.755 3.755 0 0048.75 65zm0-5a1.251 1.251 0 010 2.5 1.251 1.251 0 010-2.5zm-10-3.75A3.755 3.755 0 0035 60a3.755 3.755 0 003.75 3.75A3.755 3.755 0 0042.5 60a3.755 3.755 0 00-3.75-3.75zm0 5a1.251 1.251 0 010-2.5 1.251 1.251 0 010 2.5zm2.5-8.75h2.5V55h-2.5v-2.5zm5-2.5h2.5v2.5h-2.5V50zM55 60h2.5v2.5H55V60zm2.5-5H60v2.5h-2.5V55zm-5-2.5H55V55h-2.5v-2.5z" fill="#0098D0"/></svg>
